gui/resources/file_sharing/content_filetype_sound.svg

<svg width="44" height="44" viewBox="0 0 44 44" fill="none" xmlns="http://www.w3.org/2000/svg">
<path fill-rule="evenodd" clip-rule="evenodd" d="M29 23.016V15.333L19 18.667V29C19 30.657 17.21 32 15 32C12.79 32 11 30.657 11 29C11 27.343 12.79 26 15 26C16.195 26 17.267 26.393 18 27.016V15.72C18.0002 15.5102 18.0663 15.3058 18.1891 15.1356C18.3118 14.9655 18.485 14.8383 18.684 14.772L29.342 11.219C29.4172 11.194 29.4973 11.1871 29.5756 11.1991C29.654 11.2111 29.7284 11.2416 29.7927 11.288C29.8569 11.3344 29.9092 11.3954 29.9453 11.466C29.9813 11.5366 30.0001 11.6147 30 11.694V25C30 26.657 28.21 28 26 28C23.79 28 22 26.657 22 25C22 23.343 23.79 22 26 22C27.195 22 28.267 22.393 29 23.016Z" fill="white"/>
</svg>

<svg xmlns="http://www.w3.org/2000/svg" width="44" height="44" viewBox="0 0 44 44">
    <g fill="none" fill-rule="evenodd">
        <circle cx="22" cy="22" r="22" fill="#B684C3"/>
        <path d="M6 6h32v32H6z"/>
        <path fill="#FFF" d="M29 23.016v-7.683l-10 3.334V29c0 1.657-1.79 3-4 3s-4-1.343-4-3 1.79-3 4-3c1.195 0 2.267.393 3 1.016V15.72a1 1 0 0 1 .684-.948l10.658-3.553a.5.5 0 0 1 .658.475V25c0 1.657-1.79 3-4 3s-4-1.343-4-3 1.79-3 4-3c1.195 0 2.267.393 3 1.016z"/>
    </g>
</svg>
